X:1
T:Bereden väg för Herran, 76.76.77.66
T:Bereden väg för Herran, 76.76.77.66
T:Swedish melody, before 1560
T:Public Domain Courtesy of the Cyber Hymnal™
C:Swedish melody, before 1560
Z:Public Domain
Z:Courtesy of the Cyber Hymnal™
%%score ( 1 2 ) ( 3 4 )
L:1/8
Q:1/4=110
M:2/4
K:G
V:1 treble 
V:2 treble 
V:3 bass 
V:4 bass 
V:1
|: [DG]2 | [EG]2 [EG]2 | [DG]2 [CE]2 | [CD]4 | [B,D]2 D2 | [CE]2 [DG]2 | [EG]2 [DF]2 | [DG]4- | %8
 [DG]2 :| [DB]2 | [EB]2 [DB]2 | [Dd]2 [DB]2 | [^CA]4 | [DA]2 [EA]2 | [DA]2 [FA]2 | [EA]2 [DF]2 | %16
 E4 [DF]2 | [^CE]2 | D2 [B,G]2 | [EA]2 [DA]2 | [Dd]4- | [Dd]2 [EB]2 | [FB]2 [EB]2 | [EA]2 [DA]2 | %24
 [B,G]2 |] %25
V:2
|: x2 | x4 | x4 | x4 | x2 D2 | x4 | x4 | x4 | x2 :| x2 | x4 | x4 | x4 | x4 | x4 | x4 | %16
 (D2 ^C2) x2 | x2 | x4 | x4 | x4 | x4 | x4 | x4 | x2 |] %25
V:3
|: [G,B,]2 | [E,B,]2 [C,C]2 | [B,,G,]2 [C,G,]2 | [A,,F,]4 | [B,,G,]2 [C,G,]2 | [C,G,]2 [B,,B,]2 | %6
 [C,A,]2 [D,A,]2 | [G,,B,]4- | [G,,B,]2 :| G,2 | [E,G,]2 [B,,G,]2 | [F,A,]2 G,2 | [E,G,]4 | %13
 [D,F,]2 [^C,E,]2 | [F,A,]2 [D,A,]2 | [^C,A,]2 [D,A,]2 | [A,,A,]4 [D,A,]2 | [A,,A,]2 | %18
 [B,,F,]2 [E,G,]2 | [C,G,]2 [D,F,]2 | [B,,G,]4- | [B,,G,]2 [E,G,]2 | [^D,F,]2 [E,G,]2 | %23
 [C,G,]2 [D,F,]2 | [G,,G,]2 |] %25
V:4
|: x2 | x4 | x4 | x4 | x4 | x4 | x4 | x4 | x2 :| G,2 | x4 | x2 G,2 | x4 | x4 | x4 | x4 | x6 | x2 | %18
 x4 | x4 | x4 | x4 | x4 | x4 | x2 |] %25

